resources/icons/20px/floating-point.svg

<svg width="20" height="20" viewBox="0 0 20 20" fill="none" xmlns="http://www.w3.org/2000/svg">
<path fill-rule="evenodd" clip-rule="evenodd" d="M1 6.64831C1.34286 6.64831 1.67619 6.61989 2 6.56306C2.32381 6.50622 2.61429 6.41149 2.87143 6.27886C3.1381 6.14624 3.3619 5.97573 3.54286 5.76732C3.73333 5.55891 3.85714 5.30314 3.91429 5H5.24286V14.9467H3.45714V7.92718H1V6.64831ZM14.965 5.01251C15.6525 5.01251 16.2117 5.17207 16.6425 5.4912C17.0825 5.8012 17.4217 6.20239 17.66 6.69475C17.9075 7.17799 18.0725 7.71139 18.155 8.29493C18.2467 8.87847 18.2925 9.44377 18.2925 9.99084C18.2925 10.5379 18.2467 11.1032 18.155 11.6868C18.0725 12.2703 17.9075 12.8082 17.66 13.3006C17.4217 13.7839 17.0825 14.185 16.6425 14.5042C16.2117 14.8142 15.6525 14.9692 14.965 14.9692C14.2775 14.9692 13.7138 14.8142 13.2738 14.5042C12.8429 14.185 12.5038 13.7839 12.2563 13.3006C12.0179 12.8082 11.8529 12.2703 11.7613 11.6868C11.6788 11.1032 11.6375 10.5379 11.6375 9.99084C11.6375 9.44377 11.6788 8.87847 11.7613 8.29493C11.8529 7.71139 12.0179 7.17799 12.2563 6.69475C12.5038 6.20239 12.8429 5.8012 13.2738 5.4912C13.7138 5.17207 14.2775 5.01251 14.965 5.01251ZM14.965 13.6699C15.3042 13.6699 15.5883 13.5741 15.8175 13.3827C16.0467 13.1821 16.2254 12.9177 16.3538 12.5894C16.4913 12.2521 16.5875 11.86 16.6425 11.4132C16.6975 10.9664 16.725 10.4923 16.725 9.99084C16.725 9.48936 16.6975 9.01979 16.6425 8.58214C16.5875 8.13537 16.4913 7.7433 16.3538 7.40594C16.2254 7.06858 16.0467 6.80416 15.8175 6.61269C15.5883 6.4121 15.3042 6.3118 14.965 6.3118C14.6167 6.3118 14.3279 6.4121 14.0988 6.61269C13.8788 6.80416 13.7 7.06858 13.5625 7.40594C13.4342 7.7433 13.3425 8.13537 13.2875 8.58214C13.2325 9.01979 13.205 9.48936 13.205 9.99084C13.205 10.4923 13.2325 10.9664 13.2875 11.4132C13.3425 11.86 13.4342 12.2521 13.5625 12.5894C13.7 12.9177 13.8788 13.1821 14.0988 13.3827C14.3279 13.5741 14.6167 13.6699 14.965 13.6699ZM9.86071 13.0817H7.875V15H9.86071V13.0817Z" fill="black"/>
</svg>

<svg xmlns="http://www.w3.org/2000/svg" viewBox="0 0 20 20">
  <path d="M1 6.648q.514 0 1-.085t.871-.284q.4-.199.672-.512.285-.312.371-.767h1.329v9.947H3.457v-7.02H1zm13.965-1.635q1.032 0 1.677.478.66.465 1.018 1.204.371.724.495 1.6.137.875.137 1.696 0 .82-.137 1.696a5.2 5.2 0 0 1-.495 1.614 3.23 3.23 0 0 1-1.018 1.203q-.646.465-1.677.465-1.03 0-1.691-.465-.646-.479-1.018-1.203a5.7 5.7 0 0 1-.495-1.614 12 12 0 0 1-.123-1.696q0-.821.123-1.696a5.5 5.5 0 0 1 .495-1.6 3.26 3.26 0 0 1 1.018-1.204q.66-.478 1.691-.478m0 8.657q.509 0 .853-.287.343-.3.536-.794a4.6 4.6 0 0 0 .288-1.176q.084-.67.083-1.422 0-.753-.083-1.409a4.6 4.6 0 0 0-.288-1.176q-.193-.506-.536-.793-.345-.3-.853-.301-.522 0-.866.3-.33.288-.537.794-.193.506-.274 1.176-.083.657-.083 1.409 0 .751.082 1.422.083.671.275 1.176.207.493.537.794.344.287.866.287m-5.104-.588H7.875V15h1.986z"/>
</svg>
